!!!COM: Schubert, Franz Peter
!!!CDT: 1797-1828
!!!OTL: Am Meer
!!!SCT: DV 957
!!!YOR: Franz Schubert: Selected songs
!!!PPE: Max Friedlaender
!!!PSR: C.F. Peters 
!!!PSP: Frankfurt, London, New York
!!!PSD: n.d.
!!!PPG: pp.29-30
!!!ODT: 1828///
!!!ONB: Leading and trailing bars of rest have been deleted.
**kern
*M2/2
*MM[Sehr langsam]
*C:
*k[]
=1
2r
4r
8r
8cc
=2
4.cc
8cc
4ee
(8dd
8cc)
=3
4.b
8dd
4.cc
8cc
=4
4.ff
8ff
4ee
(8dd
8cc)
=5
(4..g
32b
32a)
4g
8r
8cc
=6
4cc
8cc
8cc
4ee
8dd
8cc
=7
4.b
8dd
4.cc
8cc
=8
4.ff
8ff
4ee
8b
8cc
=9
2dd
4cc
4r
=10
1r
=11
2r
4r
8r
8g
=12
4.g
8g
2dd
=13
4r
8r
8dd
4.dd
8dd
=14
2cc#
4r
4cc#
=15
4ff
8.ee
16ee
4dd
4cc#
=16
2dd
4d
4r
=17
2r
4r
8r
8a-
=18
4.g
8b
(8dd
8b)
(8g
8dd)
=19
4.dd
8cc
4cc
4r
=20
4ee
8dd
8a
4ee
(8dd
8a)
=21
2cc
4b
4r
=22
2r
4r
8r
8cc
=23
4.cc
8cc
4ee
8dd
8cc
=24
4.b
8dd
4.cc
8cc
=25
4.ff
8ff
4ee
(8dd
8cc)
=26
(4..g
32b
32a)
4g
8r
8cc
=27
4.cc
8cc
4ee
(8dd
8cc)
=28
4.b
8dd
4.cc
8cc
=29
4.ff
8ff
4ee
(8b
8cc)
=30
2dd
4cc
4r
=31
1r
=32
2r
4r
8r
8g
=33
4.g
8g
4dd
4dd
=34
4r
8r
8dd
4dd
8dd
8ee
=35
2cc#
4r
4cc#
=36
4ff
4ee
4dd
4cc#
=37
2dd
4d
4r
=38
2r
4r
8r
8a-
=39
4.g
8g
8g
8dd
8.ee
16ff
=40
(4ff
4ee)
4r
8r
8ee
=41
4ee
8dd
8a
4ee
(8dd
8a)
=42
(4cc
16.b
64cc
64b
16a
16b)
4cc
4r
==
*-
!!!ENC: David Huron
!!!EMD: Paul von Hippel updated this file in the following ways (1998/9/2,21-22/):
!!!EMD:  (1) changed the representation of slurs from curly braces to parentheses 
!!!EMD:  (2) changed freeform comments into reference records and tandem interpretations
!!!EMD:  (3) changed final barline from quadruple (====) to double (==)
!!!EMD:  (4) added key signatures, key designations, and tempi
!!!EEV: Version 2.0
